X: 1
P: Roderick MacDonald
C: trad. pipe tune, from Jerry Holland Colln. Vol. 1
C: arr. T. Traub 4-25-04
R: strathspey
M: C
L: 1/8
K: D
E2|"A"(3AAA c<e e>dc>A|"G"(3BGB g>e d>g B<G|"A"(3AAA c<e e>dc>A|"G"g>e "D"(3fed "A"c<ee<a|
"A"(3AAA c<e e>dc>A|"G"(3BGB g>e d>g B<G|"A"(3AB=c (3Bcd (3edc (3Bcd|"G"g>e "D"fed "A"c<e "E"(3ef^g||
"A"a2 (3ef^g a>ec>A|"G"d<=gB>g d>gB>G|"A"a2 (3ef^g a>ec>A|"G"g>e "D"(3fed "A"c<e (3ef^g|
"A"(3a^gf (3ef^g (3aed (3cBA|"G"(3BGB =g>e d>gB>G|"A"(3AB=c (3Bcd (3edc (3Bcd|"G"g>e "D"(3fed "A"c<ee<a |]



